build/assets/fonts/e044dbdb76e1805843ae429c3c16bdd9.svg

<svg width="100" height="60" viewBox="0 0 100 60" version="1.1" xmlns="http://www.w3.org/2000/svg" xmlns:xlink="http://www.w3.org/1999/xlink"><title>ApplePay-dark</title><desc>Created with Sketch.</desc><g id="Dark-Payment-badges" stroke="none" stroke-width="1" fill="none" fill-rule="evenodd" transform="translate(-610.000000, -789.000000)"><g id="ApplePay-dark" transform="translate(610.000000, 789.000000)"><rect id="Rectangle" fill="#000" x="0" y="0" width="100" height="60" rx="4"/><path d="M31.8863275,26.9583905 C31.9233184,30.7827367 35.3852633,32.0551213 35.4235752,32.0714675 C35.394511,32.1616982 34.8706945,33.8852367 33.5997954,35.6663136 C32.5013,37.2054675 31.3605294,38.7393905 29.5651532,38.771429 C27.8001624,38.8028136 27.2327495,37.768429 25.2147679,37.768429 C23.1974468,37.768429 22.5666211,38.7393905 20.896089,38.8028136 C19.1628046,38.8655829 17.8423642,37.1374675 16.7346211,35.6035444 C14.4709147,32.4657367 12.740933,26.7373905 15.064089,22.8705444 C16.2180706,20.9501982 18.2796486,19.7340444 20.5182541,19.7033136 C22.2204927,19.671929 23.8276119,20.8011213 24.8686395,20.8011213 C25.9083459,20.8011213 27.8615936,19.4430829 29.9145844,19.6425059 C30.7739606,19.6771598 33.1862908,19.9753136 34.7352817,22.1493521 C34.6097771,22.2238905 31.8559422,23.7610829 31.8863275,26.9583905 M28.5690431,17.5665444 C29.4891899,16.4981598 30.1094468,15.0113136 29.9403459,13.5316598 C28.6133,13.5826598 27.0088229,14.3790444 26.0576303,15.4467752 C25.2041991,16.3922367 24.4577771,17.9052367 24.659245,19.3561213 C26.1382174,19.4659675 27.6488963,18.6355829 28.5690431,17.5665444" id="path2997" fill="#FFF"/><path d="M41.8915098,15.737921 C42.5738874,15.6241858 43.3257727,15.5220825 44.1491705,15.430965 C44.9719001,15.3398476 45.8768358,15.294612 46.8653142,15.294612 C48.2761851,15.294612 49.4925684,15.4593989 50.5151323,15.7889727 C51.5383646,16.1185465 52.3784711,16.5902894 53.03612,17.2042013 C53.6008694,17.7496137 54.0426437,18.3971293 54.3594381,19.1473943 C54.6762324,19.8976594 54.8339612,20.7616598 54.8339612,21.7393954 C54.8339612,22.9213375 54.6174182,23.9559408 54.1823273,24.8425589 C53.7479047,25.7291771 53.1544166,26.4736261 52.401863,27.0759061 C51.6486411,27.6781861 50.7557356,28.1266649 49.7211415,28.4226351 C48.6858791,28.7179591 47.557717,28.8659442 46.3346503,28.8659442 C45.2298803,28.8659442 44.3015526,28.7864588 43.5496674,28.6274879 L43.5496674,38.4487872 L41.8915098,38.4487872 L41.8915098,15.737921 L41.8915098,15.737921 Z M43.5496674,27.1961036 C43.9493362,27.3091927 44.3957889,27.3886781 44.889694,27.4339137 C45.383599,27.4791493 45.9122579,27.5017672 46.4763389,27.5017672 C48.5923111,27.5017672 50.2324235,27.0242083 51.3960077,26.0697367 C52.5595919,25.1152651 53.1417181,23.7168382 53.1417181,21.8757485 C53.1417181,20.9891303 52.989336,20.2156012 52.6839036,19.5564536 C52.3778027,18.8966598 51.9433801,18.3570634 51.3792991,17.9363722 C50.8152181,17.5156809 50.1448706,17.1977391 49.368925,16.9812544 C48.5923111,16.7654158 47.7341594,16.6574966 46.7931332,16.6574966 C46.041248,16.6574966 45.3942925,16.6859304 44.8536035,16.742798 C44.3129144,16.7996657 43.8778235,16.8623493 43.548999,16.9302027 L43.548999,27.1961036 L43.5496674,27.1961036 Z" id="path2995" fill="#FFF"/><path d="M68.0196893,34.561755 C68.0196893,35.2209026 68.0310511,35.8806965 68.0544431,36.5398441 C68.0778351,37.1989917 68.148011,37.8348752 68.2663076,38.4487872 L66.7144165,38.4487872 L66.4677981,36.1301386 L66.3962855,36.1301386 C66.1850893,36.4487266 65.9144106,36.7666684 65.5855861,37.0846102 C65.2567616,37.402552 64.8744697,37.6927061 64.4400471,37.9544265 C64.0049562,38.2161469 63.5110511,38.4261694 62.9583319,38.5851403 C62.4056127,38.743465 61.8007628,38.8235967 61.1424455,38.8235967 C60.319716,38.8235967 59.5959011,38.6924134 58.9723376,38.4319854 C58.3494424,38.1702651 57.8381605,37.8290592 57.4384917,37.4090142 C57.0388229,36.9876767 56.7394055,36.504948 56.5395711,35.9595357 C56.3397367,35.4141233 56.2401537,34.868711 56.2401537,34.3226524 C56.2401537,32.3904452 57.0802601,30.9015471 58.7611414,29.8553118 C60.442691,28.8090766 62.9763772,28.3095461 66.3628684,28.3547817 L66.3628684,27.9114726 C66.3628684,27.4791493 66.3214311,26.9841424 66.239225,26.4270981 C66.1563505,25.8700537 65.9745614,25.3414432 65.6918525,24.8419127 C65.409812,24.3423822 64.9867513,23.9216909 64.4226702,23.5811313 C63.8585892,23.2399255 63.0940055,23.0693226 62.1302557,23.0693226 C61.401094,23.0693226 60.6786159,23.1772419 59.9614844,23.3930804 C59.244353,23.6089189 58.5920508,23.9100589 58.0045777,24.2965004 L57.4752505,23.1029262 C58.2271358,22.6033957 59.0037497,22.2453881 59.8024189,22.0295496 C60.6024248,21.813711 61.4365162,21.7057918 62.3066981,21.7057918 C63.4823124,21.7057918 64.4407155,21.8990125 65.1812389,22.2854539 C65.9217623,22.6718954 66.5038886,23.1720721 66.9269494,23.7853379 C67.3500101,24.3992498 67.6387341,25.0868313 67.7911162,25.8487284 C67.9434982,26.6106254 68.021026,27.3667065 68.021026,28.1163254 L68.021026,34.561755 L68.0196893,34.561755 Z M66.3622,29.6853552 C65.4679578,29.6620911 64.5329467,29.696341 63.5571668,29.7874584 C62.5820551,29.8779297 61.6824662,30.0776126 60.8597367,30.3839224 C60.0363388,30.6908784 59.3552978,31.1400035 58.8146088,31.7312976 C58.2739198,32.3225918 58.0032411,33.1064605 58.0032411,34.0841961 C58.0032411,35.2428742 58.3440957,36.0958888 59.0264733,36.6413011 C59.7075143,37.1867134 60.4714297,37.4600658 61.3182196,37.4600658 C61.9999289,37.4600658 62.6114622,37.3695946 63.1521513,37.1867134 C63.6928403,37.0044785 64.1620167,36.7602062 64.5623538,36.4538964 C64.9626909,36.1475866 65.2968622,35.8005648 65.5675408,35.4141233 C65.8388879,35.0270357 66.044069,34.6302547 66.1857576,34.219903 C66.3033859,33.7649619 66.3628684,33.4353881 66.3628684,33.2298891 L66.3628684,29.6853552 L66.3622,29.6853552 Z" id="path2998" fill="#FFF"/><path d="M71.2618185,22.079955 L75.5632704,32.7193728 C75.7991953,33.310667 76.0224217,33.918763 76.2342863,34.544307 C76.4461508,35.1685585 76.633955,35.7436971 76.7983673,36.2658454 L76.8692116,36.2658454 C77.0342922,35.766315 77.221428,35.2034546 77.4332926,34.5779106 C77.6451572,33.9530128 77.8804137,33.310667 78.1383939,32.650227 L82.1598104,22.0793088 L83.9222294,22.0793088 L79.0212742,34.0835499 C78.5267008,35.3559633 78.0628712,36.510764 77.6277802,37.544721 C77.1933577,38.5793243 76.7515833,39.5111781 76.3051306,40.3409286 C75.8580095,41.1706791 75.40621,41.9034962 74.9463904,42.5406722 C74.4885758,43.1765558 73.9759571,43.7342463 73.4125445,44.211159 C72.7548955,44.7791892 72.1487089,45.1947106 71.5959897,45.456431 C71.0439388,45.7181514 70.6736771,45.8829383 70.4852045,45.9507917 L69.9197868,44.6208645 C70.343516,44.4386296 70.814029,44.2001732 71.3313261,43.9048492 C71.8486231,43.608879 72.3545584,43.2230838 72.8477951,42.7455249 C73.2715242,42.3364657 73.7360222,41.7968693 74.2412891,41.1254435 C74.746556,40.4553101 75.1990238,39.6423614 75.5993609,38.6872436 C75.7403812,38.3234199 75.8112255,38.0843174 75.8112255,37.9705821 C75.8112255,37.8122574 75.7410495,37.5731549 75.5993609,37.2545669 L69.4973944,22.0793088 L71.2618185,22.0793088 L71.2618185,22.079955 Z" id="path3000" fill="#FFF"/></g></g></svg>

<svg width="100" height="60" xmlns="http://www.w3.org/2000/svg"><g fill="none" fill-rule="evenodd"><rect fill="#000" width="100" height="60" rx="4"/><path d="M31.886 26.958c.037 3.825 3.5 5.097 3.538 5.113-.03.09-.553 1.814-1.824 3.595-1.099 1.54-2.24 3.073-4.035 3.105-1.765.032-2.332-1.003-4.35-1.003s-2.648.971-4.319 1.035c-1.733.063-3.054-1.666-4.161-3.2-2.264-3.137-3.994-8.866-1.67-12.732 1.153-1.92 3.215-3.137 5.453-3.168 1.702-.031 3.31 1.098 4.35 1.098 1.04 0 2.994-1.358 5.047-1.158.859.034 3.271.332 4.82 2.506-.125.075-2.88 1.612-2.849 4.81m-3.317-9.392c.92-1.069 1.54-2.556 1.371-4.035-1.327.05-2.931.847-3.882 1.915-.854.945-1.6 2.458-1.399 3.91 1.48.109 2.99-.721 3.91-1.79m13.323-1.829a41.71 41.71 0 0 1 2.257-.307 24.794 24.794 0 0 1 2.716-.136c1.411 0 2.628.164 3.65.494 1.023.33 1.863.801 2.521 1.415a5.812 5.812 0 0 1 1.323 1.943c.317.75.475 1.615.475 2.592 0 1.182-.217 2.217-.652 3.104a6.463 6.463 0 0 1-1.78 2.233c-.753.602-1.646 1.05-2.68 1.347-1.036.295-2.164.443-3.387.443-1.105 0-2.033-.08-2.785-.239v9.822h-1.658V15.738zm1.658 11.458c.4.113.846.193 1.34.238.494.045 1.022.068 1.586.068 2.116 0 3.756-.478 4.92-1.432 1.164-.955 1.746-2.353 1.746-4.194 0-.887-.153-1.66-.458-2.32a4.168 4.168 0 0 0-1.305-1.62c-.564-.42-1.234-.738-2.01-.955-.777-.216-1.635-.324-2.576-.324-.752 0-1.399.029-1.94.086-.54.057-.975.12-1.304.187v10.266zm24.47 7.366c0 .659.011 1.319.034 1.978.024.659.094 1.295.212 1.909h-1.552l-.246-2.319h-.072a5.809 5.809 0 0 1-.81.955 6.168 6.168 0 0 1-2.627 1.5 6.573 6.573 0 0 1-1.817.239c-.822 0-1.546-.132-2.17-.392-.623-.262-1.134-.603-1.534-1.023a4.14 4.14 0 0 1-.898-1.45 4.72 4.72 0 0 1-.3-1.636c0-1.933.84-3.421 2.521-4.468 1.682-1.046 4.215-1.545 7.602-1.5v-.444c0-.432-.042-.927-.124-1.484a4.553 4.553 0 0 0-.547-1.585c-.282-.5-.705-.92-1.27-1.26-.563-.342-1.328-.513-2.292-.513-.729 0-1.451.108-2.169.324a7.438 7.438 0 0 0-1.956.904l-.53-1.194a7.946 7.946 0 0 1 2.327-1.073 9.569 9.569 0 0 1 2.505-.324c1.175 0 2.134.193 2.874.58.74.386 1.323.886 1.746 1.5.423.613.712 1.3.864 2.063.152.762.23 1.518.23 2.267v6.446h-.001zm-1.658-4.877c-.894-.023-1.83.011-2.805.102-.975.09-1.875.29-2.697.597-.824.307-1.505.756-2.045 1.347-.541.592-.812 1.375-.812 2.353 0 1.159.341 2.012 1.023 2.557.682.546 1.445.82 2.292.82.682 0 1.293-.091 1.834-.274a4.708 4.708 0 0 0 2.415-1.773c.272-.387.477-.784.619-1.194.117-.455.177-.785.177-.99v-3.545zm4.9-7.605l4.301 10.64c.236.59.46 1.199.671 1.824.212.625.4 1.2.564 1.722h.071c.165-.5.352-1.063.564-1.688.212-.625.447-1.267.705-1.928l4.022-10.57h1.762l-4.9 12.004a136.65 136.65 0 0 1-1.394 3.46 32.347 32.347 0 0 1-1.323 2.797c-.447.83-.899 1.562-1.359 2.2a9.285 9.285 0 0 1-1.533 1.67c-.658.568-1.264.984-1.817 1.245a15.75 15.75 0 0 1-1.11.495l-.566-1.33c.424-.182.894-.42 1.411-.716a7.665 7.665 0 0 0 1.517-1.16c.424-.409.888-.948 1.393-1.62.506-.67.958-1.483 1.358-2.438.141-.364.212-.603.212-.716 0-.159-.07-.398-.212-.716l-6.102-15.176h1.765v.001z" fill="#FFF"/></g></svg>
